X:925
T: Stafford's
T: R\'il Stafort
S: B.Breathnach: "Ceol Rince na hEireann" II/285
Z: B.Black
L: 1/8
M: 4/4
R: reel
K: Edor
dA|BE (3EEE BEGB|ADDD DEFA|BEEE B2 Bd|f2 ed e2 dA|
BE (3EEE B2 GB|AD (3DDD DEFA|BE (3EEE B2 Bd|f2 ed e2 ||
ee|gebe geba|fdad fddf|gebe geba|fgaf gfef|
gebe geba|fdad fddg|fbba faaf|gfed e2 ||

